packages/elvis-assets-icons/icons/svg/src/bookmark.svg

<svg width="24" height="24" viewBox="0 0 24 24" fill="none" xmlns="http://www.w3.org/2000/svg">
<path fill-rule="evenodd" clip-rule="evenodd" d="M9.6 1.6C9.06956 1.6 8.56086 1.81071 8.18578 2.18578C7.81071 2.56086 7.6 3.06956 7.6 3.6V21.2686L11.8343 17.0343C12.1467 16.7219 12.6533 16.7219 12.9657 17.0343L17.2 21.2686V3.6C17.2 3.06956 16.9893 2.56086 16.6142 2.18578C16.2391 1.81071 15.7304 1.6 15.2 1.6H9.6ZM7.05441 1.05441C7.72954 0.379284 8.64522 0 9.6 0H15.2C16.1548 0 17.0704 0.379285 17.7456 1.05441C18.4207 1.72954 18.8 2.64522 18.8 3.6V23.2C18.8 23.5235 18.6051 23.8153 18.3061 23.9391C18.0072 24.0629 17.6631 23.9945 17.4343 23.7657L12.4 18.7314L7.36568 23.7657C7.13689 23.9945 6.79279 24.0629 6.49385 23.9391C6.19491 23.8153 6 23.5235 6 23.2V3.6C6 2.64522 6.37928 1.72954 7.05441 1.05441Z" fill="black"/>
</svg>

<svg width="24" height="24" fill="none" xmlns="http://www.w3.org/2000/svg"><path fill-rule="evenodd" clip-rule="evenodd" d="M9.6 1.6a2 2 0 00-2 2v17.669l4.234-4.235a.8.8 0 011.132 0L17.2 21.27V3.6a2 2 0 00-2-2H9.6zm-2.546-.546A3.6 3.6 0 019.6 0h5.6a3.6 3.6 0 013.6 3.6v19.6a.8.8 0 01-1.366.566L12.4 18.73l-5.034 5.035A.8.8 0 016 23.2V3.6a3.6 3.6 0 011.054-2.546z" fill="#000"/></svg>
